X:1
T:Blarney Pilgrim
M:6/8
L:1/8
K:G
D|"D"DED DEG|"Am"A2G ABc|"Em"BAG AGE|"G"G2A GED|!
"D"DED DEG|"Am"A2G ABc|"Em"BAG AGE|"G"GED "D"D2:|]!
d|"G"ded dBG|"Am"AGA "Em"BGE|"G"ded dBG|"D"AGA "G"GBd|!
g2e dBG|"Am"AGA "Em"BGE|"G"B2G "D"AGE|"G"GAG G2:|]!
D|"D"ADD "G"BDD|"D"A2D "Am"ABc|"Em"BAG AGE|"Em"G2A GED|!
"D"ADD "G"BDD|"D"A2D "Am"ABc|"Em"BAG AGE|"Em"GED "D"D2:|]!
